assets/icons/error.svg

<svg width="25" height="25" viewBox="0 0 25 25" fill="none" xmlns="http://www.w3.org/2000/svg">
<g id="error">
<path id="iconDefault" fill-rule="evenodd" clip-rule="evenodd" d="M14.4151 4.46562C13.3574 3.40795 11.6426 3.40795 10.5849 4.46562L4.46562 10.5849C3.40795 11.6426 3.40795 13.3574 4.46562 14.4151L10.5849 20.5344C11.6426 21.592 13.3574 21.592 14.4151 20.5344L20.5344 14.4151C21.592 13.3574 21.592 11.6426 20.5344 10.5849L14.4151 4.46562ZM9.70102 3.58173C11.2468 2.03591 13.7531 2.03591 15.2989 3.58173L21.4182 9.70102C22.9641 11.2468 22.9641 13.7531 21.4182 15.299L15.2989 21.4182C13.7531 22.9641 11.2468 22.9641 9.70102 21.4182L3.58173 15.2989C2.03591 13.7531 2.03591 11.2468 3.58173 9.70102L9.70102 3.58173ZM12.5 7.70832C12.8452 7.70832 13.125 7.98814 13.125 8.33332V13.3333C13.125 13.6785 12.8452 13.9583 12.5 13.9583C12.1548 13.9583 11.875 13.6785 11.875 13.3333V8.33332C11.875 7.98814 12.1548 7.70832 12.5 7.70832ZM12.5 16.0417C12.8452 16.0417 13.125 16.3215 13.125 16.6667V16.8333C13.125 17.1785 12.8452 17.4583 12.5 17.4583C12.1548 17.4583 11.875 17.1785 11.875 16.8333V16.6667C11.875 16.3215 12.1548 16.0417 12.5 16.0417Z" fill="#18303F"/>
</g>
</svg>

<svg width="25" height="25" viewBox="0 0 25 25" fill="none"><g id="error"><path id="iconDefault" fill-rule="evenodd" clip-rule="evenodd" d="M14.415 4.466a2.708 2.708 0 0 0-3.83 0l-6.12 6.119a2.708 2.708 0 0 0 0 3.83l6.12 6.12a2.709 2.709 0 0 0 3.83 0l6.12-6.12a2.709 2.709 0 0 0 0-3.83l-6.12-6.12Zm-4.714-.884a3.958 3.958 0 0 1 5.598 0l6.12 6.119a3.958 3.958 0 0 1 0 5.598l-6.12 6.12a3.958 3.958 0 0 1-5.598 0l-6.12-6.12a3.958 3.958 0 0 1 0-5.598l6.12-6.12ZM12.5 7.708c.345 0 .625.28.625.625v5a.625.625 0 1 1-1.25 0v-5c0-.345.28-.625.625-.625Zm0 8.334c.345 0 .625.28.625.625v.166a.625.625 0 1 1-1.25 0v-.166c0-.346.28-.625.625-.625Z" fill="#18303F"/></g></svg>
